X:0287
T:Fy gar Rub her o'er wi' Straw.
M:C
L:1/8
Q:1/4=96
I: :: :: :: ::
Z:Jack Campin * www.campin.me.uk * 2009
K:A Minor
B|c3    B  A2  e2 |decd            B2  AG| c3  d            e^f       g2|e>dcB A3  :|
a|g2   e2  e2  dc |Bcde          (TdB) AG| g>agf            e2        g2|ageg  a3 c'|
  g2   e2  e2  dc |Bcde            B2  AG| c3  d            e2^fg       |e>dcB A3  :|
B|c>(dTcB) Aece   |dgcg            BA``BG| cegf             egdg        |e>dcB A3  :|
a|g>agf    edec   |dgcg            BA``BG| g>(aTgf)         e>d(eg)     |ageg  agac'|
  gc'ec'   g(eTdc)|d(e/d/) c(d/c/) BA``BG|(c/B/c/).d/ .c.A (d/c/d/e/) dB|e>dcB A3  :|

